X:15
T:Sandy MacIntryre's Trip to Boston
R:reel
C:John Campbell
D:John Campbell, Cape Breton Violin Music (1975-2006)
Z:Paul Stewart Cranford (P.S.C.), <http://www.cranfordpub.com>
L:1/8
M:C|
Q:333
K:A
F|E2 CE A,ECE|Acef ecce|f2 bf ecAc|dBcA BFFA|
E2 CE A,ECE|Acef ecce|f2 bf ecBc|dfec A/A/A A:|
|:f|eA c2 ecBc|ABce f2 fb|eA c2 ecBc|dfec B/B/B Bb|
eA c2 ecBc|ABce f2 fg|agfe fgaf|ecBc A/A/A A:|
